icons/glyphs/glyph-movie-camera.svg

<?xml version="1.0" encoding="UTF-8" standalone="no"?><svg height="22" viewBox="0 0 22 22" width="22" xmlns="http://www.w3.org/2000/svg"><sodipodi:namedview/><metadata><rdf:RDF><cc:Work><dc:format>image/svg+xml</dc:format><dc:type/><dc:title/></cc:Work></rdf:RDF></metadata><path d="m4.2111488.99656567c-2.3257487.000013-4.2111368 1.88540133-4.211149 4.21114953.002 1.5988925.9093844 3.058712 2.3421808 3.7683277h-2.3404448v10.6837301h15.9159752v-2.168525l6.082289 3.512186v-13.8225564l-6.082289 3.5100154v-1.7148501h-1.406611c1.429422-.7120484 2.333095-2.171374 2.333498-3.7683277-.000012-2.3257486-1.885401-4.21113708-4.21115-4.21114953-2.325749.000013-4.2111368 1.88540133-4.211149 4.21114953.002 1.5988925.9093842 3.058712 2.342181 3.7683277h-4.6756796c1.4294222-.7120484 2.3330951-2.171374 2.3334986-3.7683277-.0000123-2.3257486-1.8854014-4.21113708-4.2111502-4.21114953z" fill="#d0d0d0" stroke-linecap="square" stroke-width="1.222536"/></svg>

<?xml version="1.0" encoding="UTF-8" standalone="no"?>
<!-- Created with Inkscape (http://www.inkscape.org/) -->

<svg
   xmlns:dc="http://purl.org/dc/elements/1.1/"
   xmlns:cc="http://creativecommons.org/ns#"
   xmlns:rdf="http://www.w3.org/1999/02/22-rdf-syntax-ns#"
   xmlns:svg="http://www.w3.org/2000/svg"
   xmlns="http://www.w3.org/2000/svg"
   xmlns:sodipodi="http://sodipodi.sourceforge.net/DTD/sodipodi-0.dtd"
   xmlns:inkscape="http://www.inkscape.org/namespaces/inkscape"
   width="22"
   height="22"
   viewBox="0 0 22 22"
   version="1.1"
   id="svg8"
   inkscape:version="0.92+devel 15687 custom"
   sodipodi:docname="glyph-movie-camera.svg">
  <defs
     id="ol-defs">
    <style
       id="current-color-scheme">      .ColorScheme-Text {
        color:#d0d0d0;
        stop-color:#d0d0d0;
      }
      .ColorScheme-Background {
        color:#212121;
        stop-color:#212121;
      }
      .ColorScheme-Highlight {
        color:#0039a9;
        stop-color:#0039a9;
      }
      .ColorScheme-ViewText {
        color:#d0d0d0;
        stop-color:#d0d0d0;
      }
      .ColorScheme-ViewBackground {
        color:#19191b;
        stop-color:#19191b;
      }
      .ColorScheme-ViewHover {
        color:#005cc7;
        stop-color:#005cc7;
      }
      .ColorScheme-ViewFocus{
        color:#002466;
        stop-color:#002466;
      }
      .ColorScheme-ButtonText {
        color:#d0d0d0;
        stop-color:#d0d0d0;
      }
      .ColorScheme-ButtonBackground {
        color:#232323;
        stop-color:#232323;                             
      }                                                 
      .ColorScheme-ButtonHover {                        
        color:#005cc7;                                  
        stop-color:#005cc7;                             
      }                                                 
      .ColorScheme-ButtonFocus{                         
        color:#0039a9;                                  
        stop-color:#0039a9;                             
      }</style>
  </defs>
  <sodipodi:namedview
     id="base"
     pagecolor="#002266"
     bordercolor="#ffffff"
     borderopacity="0.46666667"
     inkscape:pageopacity="0"
     inkscape:pageshadow="2"
     inkscape:zoom="13.081476"
     inkscape:cx="16.621911"
     inkscape:cy="12.794693"
     inkscape:document-units="px"
     inkscape:current-layer="svg8"
     inkscape:document-rotation="0"
     showgrid="false"
     inkscape:showpageshadow="false"
     borderlayer="true"
     units="px"
     fit-margin-top="0"
     fit-margin-left="0"
     fit-margin-right="0"
     fit-margin-bottom="0"
     inkscape:window-width="1920"
     inkscape:window-height="1051"
     inkscape:window-x="0"
     inkscape:window-y="0"
     inkscape:window-maximized="1"
     inkscape:snap-bbox="true"
     inkscape:bbox-nodes="true" />
  <metadata
     id="metadata5">
    <rdf:RDF>
      <cc:Work
         rdf:about="">
        <dc:format>image/svg+xml</dc:format>
        <dc:type
           rdf:resource="http://purl.org/dc/dcmitype/StillImage" />
        <dc:title></dc:title>
      </cc:Work>
    </rdf:RDF>
  </metadata>
  <path
     style="vector-effect:none;fill:#d0d0d0;stroke-width:1.22253585;stroke-linecap:square"
     d="M 4.2111488,0.99656567 C 1.8854001,0.99657867 1.2e-5,2.881967 -2e-7,5.2077152 c 0.002,1.5988925 0.9093844,3.058712 2.3421808,3.7683277 H 0.0017358 V 19.659773 H 15.917711 V 17.491248 L 22,21.003434 V 7.1808776 L 15.917711,10.690893 V 8.9760429 H 14.5111 c 1.429422,-0.7120484 2.333095,-2.171374 2.333498,-3.7683277 -1.2e-5,-2.3257486 -1.885401,-4.21113708 -4.21115,-4.21114953 -2.325749,1.3e-5 -4.2111368,1.88540133 -4.211149,4.21114953 0.002,1.5988925 0.9093842,3.058712 2.342181,3.7683277 H 6.0888004 C 7.5182226,8.2639945 8.4218955,6.8046689 8.422299,5.2077152 8.4222867,2.8819666 6.5368976,0.99657812 4.2111488,0.99656567 Z"
     id="circle4266"
     inkscape:connector-curvature="0"
     sodipodi:nodetypes="ccccccccccccccccccc"
     inkscape:label="#glyph" />
</svg>
